X:5
T:Weldon's Maggot. JJo8.005
T:Buddy MacMaster's Traditional Jig,aka. JJo8.005
B:J.Johnson Choice Collection Vol 8 1758
Z:vmp.Simon Wilson 2013 www.village-music-project.org.uk
N:This is somehow closely related to Buddy McMaster's trad jig
M:6/8
L:1/8
Q:3/8=120
K:G
c|BAG DB,G,|GBd gdc|(BA)BG2B|(A2B)c3|
BAG DB,G,|GBd gdB|cdc BgB|(A2B)c3:|
|:Bcd ded|def gdc|Bcd ded|defg3|
Bcd ded|def gdB|cac BgB|(A2B)c3:|

